X:1
T:Title
%%score ( 1 2 ) { 3 | 4 }
L:1/8
Q:1/4=107
M:4/4
K:Eb
V:1 treble nm="Grand Piano, Soprano"
V:2 treble 
V:3 bass nm="Choir Pad, Bass"
V:4 bass 
V:1
 [GB][FA] [EG]2 [EB]2 E2 | [Ge]2 [Bd]2 [Ac]2 [GB]2- | [GB]2 [GB]2- [GB][GB][Ac][GB] | %3
w: By~James~McGranahan,~1891 * * * *|||
 [EG][B,E] [EG]4 [DF]2 | .G2 z2 z4 | [Ge]2 [Bd]2 [Ac]2 [GB]2- | [GB]2 [AB]2- [AB][AB]cB | %7
w: ||||
 .A2 z2 z4 | [EG]2 [DF]2 [DB]2 [DB]2 | [DF]2 [EG][FA] [GB][Ac] [GB]2 | [EG]2 [DF]2 [FB]2 [F=A]2 | %11
w: ||||
 [Fe]2 [Fd][Ec] [DB][C=A] [DB]2 | [DB][FA] [EG]2 [EB]2 E2 | [Ge]2 [Bd]2 [Ac]2 [GB]2- | %14
w: |||
 [GB]2 [AB]2- [AB][AB]cB | .A2 z2 z4 | z8 |] %17
w: |||
V:2
 x8 | x8 | x8 | x8 | D-[DF] E2 [EG]2 [GB]2 | x8 | z4 z2 F2 | B,-[B,D] [DF]4 E2 | x8 | x8 | x8 | %11
 x8 | x8 | x8 | z4 z2 F2 | B,-[B,D] [DF]4 E2- | E6 z2 |] %17
V:3
 B,2 B,2 G,2 B,2 | B,[K:treble]E E2 E2 E2- | E2 E2- EE E2 | B,2 B,4 B,2 | %4
 B,A, G,2 B,2[K:treble] E2 | E2 E2 E2 E2- | E2 D2- D[K:bass]B, A,2 | F,A, A,4 G,2 | %8
 B,2 B,2 F,2 F,2 | B,2 B,2[K:treble] E2 E2 | B,2 B,2 D2 C2 | =A,2 B,A, B,F, F,2 | %12
 F,B, B,2 G,2 B,2 | B,2[K:treble] E2 E2 E2- | E2 D2- D[K:bass]B, A,2 | F,A, A,4 G,2- | G,6 z2 |] %17
V:4
 E,2 E,2 E,2 G,2 | E,2 A,2 A,2 E,2- | E,2 E,2- E,E, E,2 | E,2 B,,4 B,,2 | B,,2 E,2 E,2 E,2 | %5
 E,2 A,,B,, C,D, E,2- | E,2 F,2- F,F, B,,2 | B,,2 B,,4 E,2 | E,2 B,,2 B,,2 B,,2 | %9
 B,,2 E,2 E,2 E,2 | E,2 B,,2 B,,2 F,2 | F,2 F,2 .F,2 B,,2 | B,,2 E,2 E,2 G,2 | %13
 E,2 A,,B,, C,D, E,2- | E,2 F,2- F,F, B,,2 | B,,2 B,,4 E,2- | E,6 z2 |] %17

